X: 39089
T: Sweeney's Buttermilk
R: reel
M: 4/4
K: Bminor
|:FB ~B2 fB ~B2|dcBc AE ~E2|FB B2 ABce|afec Ba^ge|
(3fga ea fecf|ec ~c2 BAFE|FB ~B2 ABce|afec B2 BA:|
|:FAdc BF ~F2|EAcB AE ~E2|FBdB cefb|afec d3 c|
Bcde fB ~B2|afec ABce|fefa bfea|afea fB B2:|

